svgs/sharp-solid/square-root-variable.svg

<svg xmlns="http://www.w3.org/2000/svg" viewBox="0 0 576 512"><!--! Font Awesome Pro 7.1.0 by @fontawesome - https://fontawesome.com License - https://fontawesome.com/license (Commercial License) Copyright 2025 Fonticons, Inc. --><path fill="currentColor" d="M296 32l280 0 0 64-232 0-105.3 361-6.7 23-42.4 0-9.3-15.9-102.7-176.1-77.6 0 0-64 114.4 0 9.3 15.9 74.5 127.7 91.2-312.5 6.7-23zM528 226.7l45.3 45.3-48 48 48 48-45.3 45.3-48-48-48 48-45.3-45.3 48-48-48-48 45.3-45.3c14.6 14.6 30.6 30.6 48 48 17.4-17.4 33.4-33.4 48-48z"/></svg>

<svg xmlns="http://www.w3.org/2000/svg" viewBox="0 0 576 512"><!--! Font Awesome Pro 6.7.2 by @fontawesome - https://fontawesome.com License - https://fontawesome.com/license (Commercial License) Copyright 2024 Fonticons, Inc. --><path d="M296 32l24 0 224 0 32 0 0 64-32 0L344 96 238.7 457 232 480l-42.4 0-9.3-15.9L77.6 288 32 288 0 288l0-64 32 0 64 0 18.4 0 9.3 15.9 74.5 127.7L289.3 55 296 32zM528 226.7L573.3 272l-22.6 22.6L525.3 320l25.4 25.4L573.3 368 528 413.3l-22.6-22.6L480 365.3l-25.4 25.4L432 413.3 386.7 368l22.6-22.6L434.7 320l-25.4-25.4L386.7 272 432 226.7l22.6 22.6L480 274.7l25.4-25.4L528 226.7z"/></svg>
